build/img/SVG/group.svg

<?xml version="1.0" encoding="utf-8"?>
<!-- Generated by IcoMoon.io -->
<!DOCTYPE svg PUBLIC "-//W3C//DTD SVG 1.1//EN" "http://www.w3.org/Graphics/SVG/1.1/DTD/svg11.dtd">
<svg version="1.1" xmlns="http://www.w3.org/2000/svg" xmlns:xlink="http://www.w3.org/1999/xlink" width="60" height="56" viewBox="0 0 60 56">
<path fill="#444444" d="M18.531 28q-5.062 0.156-8.281 4h-4.187q-2.562 0-4.312-1.266t-1.75-3.703q0-11.031 3.875-11.031 0.188 0 1.359 0.656t3.047 1.328 3.719 0.672q2.094 0 4.156-0.719-0.156 1.156-0.156 2.062 0 4.344 2.531 8zM52 47.906q0 3.75-2.281 5.922t-6.062 2.172h-27.313q-3.781 0-6.062-2.172t-2.281-5.922q0-1.656 0.109-3.234t0.438-3.406 0.828-3.391 1.344-3.047 1.938-2.531 2.672-1.672 3.484-0.625q0.312 0 1.344 0.672t2.281 1.5 3.344 1.5 4.219 0.672 4.219-0.672 3.344-1.5 2.281-1.5 1.344-0.672q1.906 0 3.484 0.625t2.672 1.672 1.938 2.531 1.344 3.047 0.828 3.391 0.438 3.406 0.109 3.234zM20 8q0 3.312-2.344 5.656t-5.656 2.344-5.656-2.344-2.344-5.656 2.344-5.656 5.656-2.344 5.656 2.344 2.344 5.656zM42 20q0 4.969-3.516 8.484t-8.484 3.516-8.484-3.516-3.516-8.484 3.516-8.484 8.484-3.516 8.484 3.516 3.516 8.484zM60 27.031q0 2.437-1.75 3.703t-4.312 1.266h-4.187q-3.219-3.844-8.281-4 2.531-3.656 2.531-8 0-0.906-0.156-2.062 2.062 0.719 4.156 0.719 1.844 0 3.719-0.672t3.047-1.328 1.359-0.656q3.875 0 3.875 11.031zM56 8q0 3.312-2.344 5.656t-5.656 2.344-5.656-2.344-2.344-5.656 2.344-5.656 5.656-2.344 5.656 2.344 2.344 5.656z"></path>
</svg>

<svg xmlns="http://www.w3.org/2000/svg" width="60" height="56" viewBox="0 0 60 56"><path fill="#444" d="M18.53 28q-5.06.156-8.28 4H6.063Q3.5 32 1.75 30.734T0 27.03Q0 16 3.877 16q.188 0 1.36.656t3.046 1.328 3.72.672q2.093 0 4.155-.72Q16 19.094 16 20q0 4.343 2.532 8zM52 47.906q0 3.75-2.28 5.922T43.656 56H16.344q-3.78 0-6.062-2.172t-2.28-5.922q0-1.656.108-3.234t.438-3.406.828-3.39 1.344-3.048 1.938-2.53 2.672-1.673T18.814 30q.312 0 1.344.672t2.28 1.5 3.345 1.5 4.22.672 4.218-.672 3.345-1.5 2.28-1.5T41.19 30q1.906 0 3.484.625t2.672 1.672 1.938 2.53 1.344 3.048.828 3.39.438 3.407.11 3.234zM20 8q0 3.312-2.344 5.656T12 16t-5.656-2.344T4 8t2.344-5.656T12 0t5.656 2.344T20 8zm22 12q0 4.97-3.516 8.484T30 32t-8.484-3.516T18 20t3.516-8.484T30 8t8.484 3.516T42 20zm18 7.03q0 2.438-1.75 3.704T53.938 32H49.75q-3.218-3.844-8.28-4Q44 24.344 44 20q0-.906-.155-2.062 2.062.72 4.156.72 1.845 0 3.72-.673t3.047-1.328 1.36-.656Q60 16 60 27.033zM56 8q0 3.312-2.344 5.656T48 16t-5.656-2.344T40 8t2.344-5.656T48 0t5.656 2.344T56 8z"/></svg>
